svg/radio_off.svg

<svg xmlns="http://www.w3.org/2000/svg" viewBox="0 0 24 24"><path d="m1 4.27 2 2c-.6.34-1 .99-1 1.73v12a2 2 0 0 0 2 2h14.73l2 2L22 22.72 2.28 3zM20 6H8.83l7.64-3.17L15.71 1 6.59 4.76 9.82 8H20v4h-2v-2h-2v2h-2.18L22 20.18V8a2 2 0 0 0-2-2M4 8h.73l4 4H4zm3 6c1.66 0 3 1.34 3 3s-1.34 3-3 3-3-1.34-3-3 1.34-3 3-3"/></svg>

<?xml version="1.0" encoding="UTF-8"?><!DOCTYPE svg PUBLIC "-//W3C//DTD SVG 1.1//EN" "http://www.w3.org/Graphics/SVG/1.1/DTD/svg11.dtd"><svg xmlns="http://www.w3.org/2000/svg" xmlns:xlink="http://www.w3.org/1999/xlink" version="1.1" id="mdi-radio-off" width="24" height="24" viewBox="0 0 24 24"><path d="M1 4.27L3 6.27C2.4 6.61 2 7.26 2 8V20C2 21.11 2.9 22 4 22H18.73L20.73 24L22 22.72L2.28 3L1 4.27M20 6H8.83L16.47 2.83L15.71 1L6.59 4.76L9.82 8H20V12H18V10H16V12H13.82L22 20.18V8C22 6.9 21.11 6 20 6M4 8H4.73L8.73 12H4V8M7 14C8.66 14 10 15.34 10 17C10 18.66 8.66 20 7 20C5.34 20 4 18.66 4 17C4 15.34 5.34 14 7 14Z" /></svg>
